X: 2 % start of header
T:Iridis Alpha Title Theme
T:12 of 100,000,000,000,000
C: (Sid.)
O: Jeff Minter
R:Procedurally Generated
L: 1/8
K: D % scale: C major
V:1 name="Voice 1"
z15    |     |     |    G16 |     |     |     |    B,16 |     |     |     |    ^D16 |     |     |     |    C,16 |     |     |     |    C16 |     |     |     |    E,16 |     |     |     |    ^G,16 |     |     |     |    C16 |     |     |     |    c16 |     |     |     |    E16 |     |     |     |    ^G16 |     |     |     |    E,16 |     |     |     |    E16 |     |     |     |    ^G,16 |     |     |     |    C16 |     |     |     |    ^G, | :|
V:2 name="Voice 2"
z3   G4 |    B,4 |    ^D4 |    G4 |    g4 |    B4 |    ^d4 |    B,4 |    B4 |    ^D4 |    G4 |    ^D4 |    ^d4 |    G4 |    B4 |    C,4 |    C4 |    E,4 |    ^G,4 |    C4 |    c4 |    E4 |    ^G4 |    E,4 |    E4 |    ^G,4 |    C4 |    ^G,4 |    ^G4 |    C4 |    E4 |    C4 |    c4 |    E4 |    ^G4 |    c4 |    c'4 |    e4 |    ^g4 |    E4 |    e4 |    ^G4 |    c4 |    ^G4 |    ^g4 |    c4 |    e4 |    E,4 |    E4 |    ^G,4 |    C4 |    E4 |    e4 |    ^G4 |    c4 |    ^G,4 |    ^G4 |    C4 |    E4 |    C4 |    c4 |    E4 |    ^G4 |    ^G, | :|
V:3 name="Voice 3"
G1B,1^D1G1|g1B1^d1B,1|B1^D1G1^D1|^d1G1B1G1|g1B1^d1g1|g'1b1^d'1B1|b1^d1g1^d1|^d'1g1b1B,1|B1^D1G1B1|b1^d1g1^D1|^d1G1B1G1|g1B1^d1^D1|^d1G1B1^d1|^d'1g1b1G1|g1B1^d1B1|b1^d1g1C,1|C1E,1^G,1C1|c1E1^G1E,1|E1^G,1C1^G,1|^G1C1E1C1|c1E1^G1c1|c'1e1^g1E1|e1^G1c1^G1|^g1c1e1E,1|E1^G,1C1E1|e1^G1c1^G,1|^G1C1E1C1|c1E1^G1^G,1|^G1C1E1^G1|^g1c1e1C1|c1E1^G1E1|e1^G1c1C1|c1E1^G1c1|c'1e1^g1E1|e1^G1c1^G1|^g1c1e1c1|c'1e1^g1c'1|c''1e'1^g'1e1|e'1^g1c'1^g1|^g'1c'1e'1E1|e1^G1c1e1|e'1^g1c'1^G1|^g1c1e1c1|c'1e1^g1^G1|^g1c1e1^g1|^g'1c'1e'1c1|c'1e1^g1e1|e'1^g1c'1E,1|E1^G,1C1E1|e1^G1c1^G,1|^G1C1E1C1|c1E1^G1E1|e1^G1c1e1|e'1^g1c'1^G1|^g1c1e1c1|c'1e1^g1^G,1|^G1C1E1^G1|^g1c1e1C1|c1E1^G1E1|e1^G1c1C1|c1E1^G1c1|c'1e1^g1E1|e1^G1c1^G1|^g1c1e1^G,|:|
